dist/svg/object-based/camera_128.svg

<svg xmlns="http://www.w3.org/2000/svg" viewBox="0 0 128 128"><path d="M44 28v-8H20v8H4v80h120V28H44zm76 76H8V32h112v72z"/><path d="M84 94c14.367 0 26-11.633 26-26S98.367 42 84 42c-14.348 0-26 11.633-26 26s11.652 26 26 26zm0-48c12.13 0 22 9.87 22 22s-9.87 22-22 22-22-9.87-22-22 9.87-22 22-22z"/><path d="M84 82c7.734 0 14-6.266 14-14s-6.266-14-14-14c-7.727 0-14 6.266-14 14s6.273 14 14 14zm0-18c2.21 0 4 1.79 4 4s-1.79 4-4 4-4-1.79-4-4 1.79-4 4-4z"/></svg>

<?xml version="1.0" encoding="utf-8"?>
<!-- Generator: Adobe Illustrator 17.1.0, SVG Export Plug-In . SVG Version: 6.00 Build 0)  -->
<!DOCTYPE svg PUBLIC "-//W3C//DTD SVG 1.1//EN" "http://www.w3.org/Graphics/SVG/1.1/DTD/svg11.dtd">
<svg version="1.1" id="Layer_1" xmlns="http://www.w3.org/2000/svg" xmlns:xlink="http://www.w3.org/1999/xlink" x="0px" y="0px"
	 width="128px" height="128px" viewBox="0 0 128 128" enable-background="new 0 0 128 128" xml:space="preserve">
<g>
	<path d="M44,28v-8H20v8H4v80h120V28H44z M120,104H8V32h112V104z"/>
	<path d="M84,94c14.367,0,26-11.633,26-26S98.367,42,84,42c-14.348,0-26,11.633-26,26S69.652,94,84,94z M84,46
		c12.131,0,22,9.869,22,22s-9.869,22-22,22c-12.131,0-22-9.869-22-22S71.869,46,84,46z"/>
	<path d="M84,82c7.734,0,14-6.266,14-14s-6.266-14-14-14c-7.727,0-14,6.266-14,14S76.273,82,84,82z M84,64c2.209,0,4,1.791,4,4
		s-1.791,4-4,4s-4-1.791-4-4S81.791,64,84,64z"/>
</g>
</svg>
